X:9
T:Comb Your Hair and Curl It
R:hop jig
D:Chieftains 1.
Z:id:hn-slipjig-9
M:9/8
K:Edor
B2E E2F G2A|B2e ece dBA|B2E E2F G2A|B=cB A2G FED:|
|:g2e efe e2f|~g3 efg afd|1 g2e efe e2c|d2B ABG FED:|2 gfg afd g2e|d2B ABG FED||
<end>
<start>
